svg/ui icons/UI_rating-50.svg

<?xml version='1.0' encoding='utf-8'?>
<svg xmlns="http://www.w3.org/2000/svg" width="20" height="20" viewBox="0 0 20 20" fill="none">
<path d="M10 0L12.2451 6.90983H19.5106L13.6327 11.1803L15.8779 18.0902L10 13.8197L4.12215 18.0902L6.36729 11.1803L0.489435 6.90983H7.75486L10 0Z" fill="currentColor" />
<path d="M10.0008 0L10 7V11.5L10.0008 12L10 12.5L10.0008 13.8L4.12295 18.0902L6.38678 11.1743L0.490234 6.90983L7.76722 6.92574L10.0008 0Z" fill="currentColor" />
</svg>

<?xml version="1.0" encoding="UTF-8"?>
<svg id="Layer_1" data-name="Layer 1" xmlns="http://www.w3.org/2000/svg" width="20" height="20" viewBox="0 0 20 20">
  <path d="M10,0l2.2451,6.9098h7.2655l-5.8779,4.2705,2.2452,6.9099-5.8779-4.2705-5.8779,4.2705,2.2451-6.9099L.4894,6.9098h7.2654L10,0Z" style="fill: none; stroke: currentColor; stroke-width: 1.5; stroke-miterlimit: 10;"/>
  <path d="M10.0008,0l-.0008,7v4.5l.0008.5-.0008.5.0008,1.3-5.8779,4.2902,2.2638-6.9159L.4902,6.9098l7.277.0159L10.0008,0Z" style="fill: currentColor;"/>
</svg>
